src/assets/LINKEDIN.svg

<svg width="19" height="19" viewBox="0 0 19 19" fill="none" xmlns="http://www.w3.org/2000/svg">
<path fill-rule="evenodd" clip-rule="evenodd" d="M16.9277 0.743164H1.90509C1.08456 0.743164 0.367188 1.33394 0.367188 2.14509V17.2006C0.367188 18.0164 1.08456 18.7432 1.90509 18.7432H16.923C17.7483 18.7432 18.3672 18.0117 18.3672 17.2006V2.14509C18.3718 1.33394 17.7483 0.743164 16.9277 0.743164ZM5.94676 15.7471H3.36796V7.72936H5.94676V15.7471ZM4.74645 6.51029H4.72769C3.90248 6.51029 3.36796 5.89607 3.36796 5.12712C3.36796 4.3441 3.91654 3.74395 4.76051 3.74395C5.60448 3.74395 6.12024 4.33941 6.13899 5.12712C6.13899 5.89607 5.60448 6.51029 4.74645 6.51029ZM15.3711 15.7471H12.7923V11.3631C12.7923 10.3128 12.4172 9.59547 11.4841 9.59547C10.7714 9.59547 10.3495 10.0784 10.1619 10.5473C10.0916 10.7161 10.0728 10.9458 10.0728 11.1803V15.7471H7.49403V7.72936H10.0728V8.84527C10.4479 8.31076 11.034 7.54181 12.3984 7.54181C14.0911 7.54181 15.3711 8.65773 15.3711 11.063V15.7471Z" fill="#2196F3"/>
</svg>

<svg width="19" height="19" fill="none" xmlns="http://www.w3.org/2000/svg"><path fill-rule="evenodd" clip-rule="evenodd" d="M16.928.743H1.905c-.82 0-1.538.59-1.538 1.402v15.056c0 .815.718 1.542 1.538 1.542h15.018c.825 0 1.444-.731 1.444-1.542V2.145c.005-.811-.619-1.402-1.44-1.402zM5.947 15.747H3.368V7.73h2.579v8.018zm-1.2-9.237h-.02c-.825 0-1.359-.614-1.359-1.383 0-.783.549-1.383 1.393-1.383.843 0 1.36.595 1.378 1.383 0 .77-.535 1.383-1.393 1.383zm10.624 9.237h-2.579v-4.384c0-1.05-.375-1.768-1.308-1.768-.713 0-1.134.483-1.322.952-.07.17-.09.399-.09.633v4.567H7.495V7.73h2.579v1.116c.375-.534.961-1.303 2.325-1.303 1.693 0 2.973 1.116 2.973 3.521v4.684z" fill="#2196F3"/></svg>
